X: 1481
T: Nihansın Dîdeden Ey Mestinâzım
C: Hacı Fâik Bey
O: Turkey
F: http://compmusic.upf.edu/node/140
N: rast--sarki--curcuna--nihansin_dideden--haci_faik_bey
N: makam= rast
N: form= sarki
N: usul= curcuna = 10/8
M: 10/8
L: 1/16
K: C _1/4B ^f  
Q: 1/4=180
%%MIDI tuningsystem comma53
d3c d2e4c2 e2d4z2  | B3A B2c4A2 c2B4A2  | \
w:  ARANAĞME  |   | 
G4 A2B2 c2d2 e2=f2 e2d2  | 
w:   | 
a2g2 =f2e2 d2e2 c2d4z2  | d3c d2e4c2 e2d4z2  | \
w:   |  ARANAĞME  | 
B3A B2c4A2 c2B4A2  | 
w:   | 
G4 g2=f2 e2d2 c2B2 A2G2  | A2B2 c2B2 A2G2 F2G6  | \
w:   |   | 
G4 B2B2 A2A2 G2G4A2  | 
w:  *  Ni han *  sın   | 
B4 A2A2 G2G8z2  | z4 c2d4d4c4B2  | c2d2 e4 d2d2 c2B4A2  | \
w:  dî *  de *  den   |  ey  *  mes  |  ti *  nâ *  zım    | 
G4 B2B2 A2A2 G2G4A2  | 
w:  *  Ni han *  sın   | 
B4 A2A2 G2G8z2  | z4 c2d4d4c4B2  | c2d2 e4 d2d2 c2d6  | \
w:  dî *  de *  den   |  ey  *  mes  |  ti *  nâ *  zım    | 
z4 =f2e2 d2e2 c2d4z2  | 
w:  SAZ  | 
z4 c2d4d4c2 B2A2  | B3A B2c2 d2d2 c2B4AG  | \
w:  Ba na  sen  |  siz  *  *  ci *  han  | 
G4 A2B4c2 e2d4c2  | 
w:  *  da  *  can   | 
B4 c2A2 G2G4B2 {c}BAB2  | z4 B2{c}B2 A2A2 G2G4A2  | \
w:  ne  lâ *  *  zım    |  Ba *  na  *  sen  | 
B4 A2A2 G2G8-G2  | 
w:  siz  *  ci *  han  | 
G4 A2B4c2 e2d4c2  | B4 c2A2 G2G8z2  | \
w:  *  da  *  can   |  ne  lâ *  *  zım    | 
G4 e2d2 c2B2 c2d4z2  | 
w:  SAZ  | 
z4 c2d4d3cd6  | e6=f2 e2d2 c2d6  | d4 c2d4e2 =f2g2 e2d2  | \
w:  Be nim  sen  |  sin  fe *  lek  |  de  *  *  ça  | 
e2d2 d2c2 d2c2 BAB6  | 
w:  re *  sâ *  *  zım    | 
z4 B2c4c3Bc6  | d6e4=f2 e2d2 c2B2  | \
w:  Be nim  sen  |  sin  fe lek  | 
B4 A2B4c2 d2e4d2  | d2c2 c4 d2c2 B^AB4z2  | 
w:  *  de  *  ça  |  re *  sâ *  zım    | 
z4 =f2e2 d2c2 B^AB4z2  | z4 c2d4d4c2 B2A2  | \
w:  SAZ  |  Ba na  sen  | 
B3A B2c2 d2d2 c2B4AG  | 
w:  siz  *  *  ci *  han  | 
G4 A2B4c2 e2d4c2  | B4 c2A2 G2G4B2 {c}BAB2  | \
w:  *  da  *  can   |  ne  lâ *  *  zım    | 
z4 B2{c}B2 A2A2 G2G4A2  | 
w:  Ba *  na  *  sen  | 
B4 A2A2 G2G8-G2  | G4 A2B4c2 e2d4c2  | \
w:  siz  *  ci *  han  |  *  da  *  can   | 
B4 c2A2 G2G8z2  | |


